assets/illustrations/multisize/32/ppsx.svg

<?xml version="1.0" encoding="utf-8"?>
<!-- Generator: Adobe Illustrator 21.1.0, SVG Export Plug-In . SVG Version: 6.00 Build 0)  -->
<svg version="1.1" xmlns="http://www.w3.org/2000/svg" xmlns:xlink="http://www.w3.org/1999/xlink" x="0px" y="0px"
	 viewBox="0 0 32 32" enable-background="new 0 0 32 32" xml:space="preserve">
<g id="TEMPLATE" display="none">
	<g display="inline">
		<path fill="#D0D0D0" d="M32,0v32H0V0H32 M33-1h-1H0h-1v1v32v1h1h32h1v-1V0V-1L33-1z"/>
	</g>
	<g display="inline" opacity="0.1">
		<path fill="#FF3A6D" d="M30,2v28H2V2H30 M32,0H0v32h32V0L32,0z"/>
	</g>
</g>
<g id="ICONS">
	<polygon fill="#FFFFFF" points="23,2 7,2 7,5 4,5 3,5 3,6 4,6 4,17 8,17 8,19 7,19 7,20 8,20 8,22 5,25 5,27 7,25 7,30 9,30 9,29 
		11,29 11,30 29,30 29,8 	"/>
	<g>
		<g>
			<rect x="4.5" y="5.5" fill="#FFFFFF" width="14" height="11"/>
		</g>
		<g>
			<path fill="#808080" d="M18,6v10H5V6H18 M19,5H4v12h15V5L19,5z"/>
		</g>
	</g>
	<rect x="3" y="5" fill="#808080" width="17" height="1"/>
	<rect x="7" y="19" fill="#808080" width="9" height="1"/>
	<rect x="11" y="16" fill="#808080" width="1" height="3"/>
	<path fill="#949494" d="M29,8l-6-6H7v3h1V3h14v6h6v20H11v1h18V8z M23,8V3.5L27.5,8H23z"/>
	<polygon fill="#D04727" points="11,25 8,22 5,25 5,27 7,25 7,30 9,30 9,25 11,27 	"/>
	<rect x="7" y="8" fill="#C8C8C8" width="1" height="6"/>
	<rect x="9" y="9" fill="#F5BA9D" width="1" height="5"/>
	<rect x="11" y="10" fill="#C8C8C8" width="1" height="4"/>
	<rect x="13" y="11" fill="#F5BA9D" width="1" height="3"/>
	<rect x="15" y="12" fill="#C8C8C8" width="1" height="2"/>
	<linearGradient id="SVGID_1_" gradientUnits="userSpaceOnUse" x1="5.0842" y1="3.6075" x2="27.9614" y2="30.8715">
		<stop  offset="0" style="stop-color:#FFFFFF;stop-opacity:0"/>
		<stop  offset="0.2264" style="stop-color:#FCFCFC;stop-opacity:0.0226"/>
		<stop  offset="0.3626" style="stop-color:#F4F4F4;stop-opacity:0.0363"/>
		<stop  offset="0.475" style="stop-color:#E6E6E6;stop-opacity:0.0475"/>
		<stop  offset="0.5744" style="stop-color:#D1D1D1;stop-opacity:0.0574"/>
		<stop  offset="0.6652" style="stop-color:#B7B7B7;stop-opacity:0.0665"/>
		<stop  offset="0.7498" style="stop-color:#979797;stop-opacity:0.075"/>
		<stop  offset="0.8297" style="stop-color:#707070;stop-opacity:0.083"/>
		<stop  offset="0.9057" style="stop-color:#444444;stop-opacity:0.0906"/>
		<stop  offset="0.9761" style="stop-color:#121212;stop-opacity:0.0976"/>
		<stop  offset="1" style="stop-color:#000000;stop-opacity:0.1"/>
	</linearGradient>
	<path fill="url(#SVGID_1_)" d="M29,8l-6-6H7v28h22V8z"/>
	<linearGradient id="SVGID_2_" gradientUnits="userSpaceOnUse" x1="22.1479" y1="9.1021" x2="26.1144" y2="5.1356">
		<stop  offset="0" style="stop-color:#FFFFFF;stop-opacity:0"/>
		<stop  offset="0.8537" style="stop-color:#FFFFFF;stop-opacity:0.2134"/>
		<stop  offset="1" style="stop-color:#FFFFFF;stop-opacity:0.25"/>
	</linearGradient>
	<polygon fill="url(#SVGID_2_)" points="7,2 7,3 22,3 22,9 28,9 28,24.5 29,24.5 29,8 23,2 	"/>
	<linearGradient id="SVGID_3_" gradientUnits="userSpaceOnUse" x1="25" y1="10.9375" x2="25" y2="9.0583">
		<stop  offset="0" style="stop-color:#828282;stop-opacity:0"/>
		<stop  offset="0.2812" style="stop-color:#7F7F7F;stop-opacity:0.0281"/>
		<stop  offset="0.4503" style="stop-color:#777777;stop-opacity:0.045"/>
		<stop  offset="0.5899" style="stop-color:#696969;stop-opacity:0.059"/>
		<stop  offset="0.7133" style="stop-color:#545454;stop-opacity:0.0713"/>
		<stop  offset="0.8259" style="stop-color:#3A3A3A;stop-opacity:0.0826"/>
		<stop  offset="0.9294" style="stop-color:#1A1A1A;stop-opacity:0.0929"/>
		<stop  offset="1" style="stop-color:#000000;stop-opacity:0.1"/>
	</linearGradient>
	<rect x="22" y="9" fill="url(#SVGID_3_)" width="6" height="2"/>
</g>
</svg>

<svg id="dac29165-e3f6-4666-8056-55ef5f6ba46a" data-name="ICONS" xmlns="http://www.w3.org/2000/svg" xmlns:xlink="http://www.w3.org/1999/xlink" viewBox="0 0 32 32"><defs><linearGradient id="8c22e3b4-b23d-4a89-9ee4-7b1bfdf09091" x1="5.0842" y1="3.60755" x2="27.96138" y2="30.87151" gradientUnits="userSpaceOnUse"><stop offset="0" stop-color="#fff" stop-opacity="0"/><stop offset="0.86247" stop-color="#5e5e5e" stop-opacity="0.06315"/><stop offset="1" stop-opacity="0.1"/></linearGradient><linearGradient id="063b6a8e-6841-4131-b775-8abe418b671c" x1="22.14788" y1="9.10212" x2="26.11437" y2="5.13563" gradientUnits="userSpaceOnUse"><stop offset="0" stop-color="#fff" stop-opacity="0"/><stop offset="0.44604" stop-color="#fff" stop-opacity="0.00799"/><stop offset="0.63551" stop-color="#fff" stop-opacity="0.03616"/><stop offset="0.77636" stop-color="#fff" stop-opacity="0.08493"/><stop offset="0.8924" stop-color="#fff" stop-opacity="0.15385"/><stop offset="0.99328" stop-color="#fff" stop-opacity="0.24291"/><stop offset="1" stop-color="#fff" stop-opacity="0.25"/></linearGradient><linearGradient id="359ed368-33e5-4169-b056-78b1e884e473" x1="25" y1="10.9375" x2="25" y2="9.05834" gradientUnits="userSpaceOnUse"><stop offset="0" stop-color="#828282" stop-opacity="0"/><stop offset="0.86247" stop-color="#303030" stop-opacity="0.06315"/><stop offset="1" stop-opacity="0.1"/></linearGradient></defs><title>FileTypeIcons_Master_All_NEW</title><polygon points="23 2 7 2 7 5 4 5 3 5 3 6 4 6 4 17 8 17 8 19 7 19 7 20 8 20 8 22 5 25 5 27 7 25 7 30 9 30 9 29 11 29 11 30 29 30 29 8 23 2" fill="#fff"/><rect x="4.5" y="5.5" width="14" height="11" fill="#fff"/><path d="M18,6V16H5V6H18m1-1H4V17H19V5Z" fill="gray"/><rect x="3" y="5" width="17" height="1" fill="gray"/><rect x="7" y="19" width="9" height="1" fill="gray"/><rect x="11" y="16" width="1" height="3" fill="gray"/><path d="M29,8,23,2H7V5H8V3H22V9h6V29H11v1H29ZM23,8V3.5L27.5,8Z" fill="#949494"/><polygon points="11 25 8 22 5 25 5 27 7 25 7 30 9 30 9 25 11 27 11 25" fill="#d04727"/><rect x="7" y="8" width="1" height="6" fill="#c8c8c8"/><rect x="9" y="9" width="1" height="5" fill="#f5ba9d"/><rect x="11" y="10" width="1" height="4" fill="#c8c8c8"/><rect x="13" y="11" width="1" height="3" fill="#f5ba9d"/><rect x="15" y="12" width="1" height="2" fill="#c8c8c8"/><path d="M29,8,23,2H7V30H29Z" fill="url(#8c22e3b4-b23d-4a89-9ee4-7b1bfdf09091)"/><polygon points="7 2 7 3 22 3 22 9 28 9 28 24.5 29 24.5 29 8 23 2 7 2" fill="url(#063b6a8e-6841-4131-b775-8abe418b671c)"/><rect x="22" y="9" width="6" height="2" fill="url(#359ed368-33e5-4169-b056-78b1e884e473)"/></svg>
